X:81
T:Ps 47 Old V.. WHG.080
R:hymn
S:W.H.Giles MS,Bampton,Oxfordshire,1839p84
O:England
H:donated by Mrs W.R.Kettlewell to VWML,Apr 1927.
A:Bampton, Oxfordshire
N:Marked to be sung to vv 1, 2, 5 & 6.
N:First tune from the “back” end of the book.
Z:PJHeadford – VMP 2009
M:3/4
L:1/8
Q:1/4=120
K:D
“^Sym”d2|(A>GF2) c2|d4 c2|(d>A FA) de|(f>e d2) c2|\
(d>A FA) de|f2 gefd|(d2c2) d2|g>fefge|
f>edefd|Be d2c2|d4||\
D2|(F>ED2) E2|F4 A2|(B>cd2) c2|d4 A2|
w:Ye peo__ple all with one__ ac-cord Clap
d>edcBA|B>cBAGF|G>AGFED|A4z2|\
w:hands__________________
e2e2 e2|e4z2|A2A2 ^G2|A4 ((3edc)|
w:Shout and re-joice Shout
d2f2 a2|^g/f/e/d/ c2B2|A4||\
d2d2 A2|B4 d2|e4 d2|(d2c2) A2|
w:Be glad and sing un-to the Lord_ with
(d2e2) f2|B4 c2|d4 A2|d4 A2|\
w:sweet_ & pleas-ent voice Be~:\|\|:
B4 d2|(A2G2) F2|(F2E2) A2|d>A d2e2|f4 f2|
w:||**with
e e d2c2|d4 A2|”_Sym”d2e2 f2|Bgfedc|d6||\
A2|d4 A2|(F2E2) D2|(A2B2) c2|d4 e2|
w:For high the Lord_ and dread_ful is His
f>gf>g af|(e>d c2)B2|A4″^Sym” Bc|\
w:won_ders_ ma-ny-fold____
def^gae|fe/d/ c2c2|A6||
A2|d>cd>e fd|(e2A2) c2|dABA GF|(F2E2) A2|\
w:A migh___ty_ King_ he is___ like_wise_ in
(B2c2) d2|(A>G F2)E2|D4||d2|
w:all_ the Earth__ ex-told A
M:2/4
A3 G|F2 A2|B2 e>d|(dc) zA|\
w:migh-ty |||**in
(d>cde|f3)e|d2c2|d4|\
w:all____
“_Sym”aa a2|ff a2|ea g/f/e/g/|f2 e2|d4|]
